build/svg/cmd/sc_fontworksameletterheights.svg

<?xml version="1.0" encoding="UTF-8" standalone="no"?>
<svg
   xmlns:dc="http://purl.org/dc/elements/1.1/"
   xmlns:cc="http://creativecommons.org/ns#"
   xmlns:rdf="http://www.w3.org/1999/02/22-rdf-syntax-ns#"
   xmlns:svg="http://www.w3.org/2000/svg"
   xmlns="http://www.w3.org/2000/svg"
   xmlns:sodipodi="http://sodipodi.sourceforge.net/DTD/sodipodi-0.dtd"
   xmlns:inkscape="http://www.inkscape.org/namespaces/inkscape"
   viewBox="0 0 16 16"
   version="1.1"
   id="svg4"
   sodipodi:docname="sc_fontworksameletterheights.svg"
   inkscape:export-filename="/home/jupiter007/Libreoffice yaru theme fullcolor/build/cmd/sc_fontworksameletterheights.png"
   inkscape:export-xdpi="96"
   inkscape:export-ydpi="96"
   inkscape:version="0.92.5 (2060ec1f9f, 2020-04-08)"><metadata
   id="metadata10">
  <rdf:RDF>
    <cc:Work
       rdf:about="">
      <dc:format>image/svg+xml</dc:format>
      <dc:type
         rdf:resource="http://purl.org/dc/dcmitype/StillImage" />
    </cc:Work>
  </rdf:RDF>
</metadata>
<defs
   id="defs8" />
<sodipodi:namedview
   pagecolor="#ffffff"
   bordercolor="#666666"
   borderopacity="1"
   objecttolerance="10"
   gridtolerance="10"
   guidetolerance="10"
   inkscape:pageopacity="0"
   inkscape:pageshadow="2"
   inkscape:window-width="1920"
   inkscape:window-height="1011"
   id="namedview6"
   showgrid="true"
   inkscape:zoom="20.85965"
   inkscape:cx="1.1257502"
   inkscape:cy="9.310573"
   inkscape:window-x="0"
   inkscape:window-y="32"
   inkscape:window-maximized="1"
   inkscape:current-layer="svg4">
  <inkscape:grid
     type="xygrid"
     id="grid833" />
</sodipodi:namedview>
/&gt;<path
   inkscape:connector-curvature="0"
   id="path870"
   d="m 12,9 a 3,3 0 0 0 -3,3 3,3 0 0 0 3,3 3,3 0 0 0 1,-0.175781 V 15 h 1 1 V 12 9 H 14 13 V 9.175781 A 3,3 0 0 0 12,9 Z m 0,2 a 1,1 0 0 1 1,1 1,1 0 0 1 -1,1 1,1 0 0 1 -1,-1 1,1 0 0 1 1,-1 z"
   style="opacity:0.6;fill:#000000;fill-opacity:1;fill-rule:evenodd;stroke:#000000;stroke-width:2;stroke-linecap:butt;stroke-linejoin:round;stroke-miterlimit:4;stroke-dasharray:none;stroke-opacity:1" />
<path
   inkscape:connector-curvature="0"
   style="opacity:1;fill:#ffffff;fill-opacity:1;fill-rule:evenodd;stroke:none;stroke-width:2;stroke-linecap:butt;stroke-linejoin:round;stroke-miterlimit:4;stroke-dasharray:none;stroke-opacity:1"
   d="m 12,9 a 3,3 0 0 0 -3,3 3,3 0 0 0 3,3 3,3 0 0 0 1,-0.175781 V 15 h 1 1 V 12 9 H 14 13 V 9.175781 A 3,3 0 0 0 12,9 Z m 0,2 a 1,1 0 0 1 1,1 1,1 0 0 1 -1,1 1,1 0 0 1 -1,-1 1,1 0 0 1 1,-1 z"
   id="rect859" />
<path
   sodipodi:nodetypes="ccccccccccccccccc"
   inkscape:connector-curvature="0"
   id="path936"
   d="M 4.5370681,4.9999998 4.30074,5.6660154 0.99995858,15 H 3.2171384 L 4.1917478,12.714844 H 7.5659431 L 8.4409428,15 H 10.646443 L 7.4062087,4.9999998 H 7.2714431 6.2909743 5.6952712 Z M 5.941365,7.240234 4.7577712,10.572266 h 2.2558594 z"
   style="color:#000000;font-style:normal;font-variant:normal;font-weight:normal;font-stretch:normal;font-size:medium;line-height:normal;font-family:sans-serif;font-variant-ligatures:normal;font-variant-position:normal;font-variant-caps:normal;font-variant-numeric:normal;font-variant-alternates:normal;font-feature-settings:normal;text-indent:0;text-align:start;text-decoration:none;text-decoration-line:none;text-decoration-style:solid;text-decoration-color:#000000;letter-spacing:normal;word-spacing:normal;text-transform:none;writing-mode:lr-tb;direction:ltr;text-orientation:mixed;dominant-baseline:auto;baseline-shift:baseline;text-anchor:start;white-space:normal;shape-padding:0;clip-rule:nonzero;display:inline;overflow:visible;visibility:visible;opacity:0.6;isolation:auto;mix-blend-mode:normal;color-interpolation:sRGB;color-interpolation-filters:linearRGB;solid-color:#000000;solid-opacity:1;vector-effect:none;fill:#000000;fill-opacity:1;fill-rule:evenodd;stroke:#000000;stroke-width:2;stroke-linecap:butt;stroke-linejoin:round;stroke-miterlimit:4;stroke-dasharray:none;stroke-dashoffset:0;stroke-opacity:1;color-rendering:auto;image-rendering:auto;shape-rendering:auto;text-rendering:auto;enable-background:accumulate" />
<path
   style="color:#000000;font-style:normal;font-variant:normal;font-weight:normal;font-stretch:normal;font-size:medium;line-height:normal;font-family:sans-serif;font-variant-ligatures:normal;font-variant-position:normal;font-variant-caps:normal;font-variant-numeric:normal;font-variant-alternates:normal;font-feature-settings:normal;text-indent:0;text-align:start;text-decoration:none;text-decoration-line:none;text-decoration-style:solid;text-decoration-color:#000000;letter-spacing:normal;word-spacing:normal;text-transform:none;writing-mode:lr-tb;direction:ltr;text-orientation:mixed;dominant-baseline:auto;baseline-shift:baseline;text-anchor:start;white-space:normal;shape-padding:0;clip-rule:nonzero;display:inline;overflow:visible;visibility:visible;opacity:1;isolation:auto;mix-blend-mode:normal;color-interpolation:sRGB;color-interpolation-filters:linearRGB;solid-color:#000000;solid-opacity:1;vector-effect:none;fill:#ffffff;fill-opacity:1;fill-rule:evenodd;stroke:none;stroke-width:2;stroke-linecap:butt;stroke-linejoin:miter;stroke-miterlimit:4;stroke-dasharray:none;stroke-dashoffset:0;stroke-opacity:1;color-rendering:auto;image-rendering:auto;shape-rendering:auto;text-rendering:auto;enable-background:accumulate"
   d="M 4.5370681,4.9999998 4.30074,5.6660154 0.99995858,15 H 3.2171384 L 4.1917478,12.714844 H 7.5659431 L 8.4409428,15 H 10.646443 L 7.4062087,4.9999998 H 7.2714431 6.2909743 5.6952712 Z M 5.941365,7.240234 4.7577712,10.572266 h 2.2558594 z"
   id="path882"
   inkscape:connector-curvature="0"
   sodipodi:nodetypes="ccccccccccccccccc" />
<rect
   y="1"
   x="1"
   height="2"
   width="14"
   id="rect869"
   style="opacity:1;fill:#1463a5;fill-opacity:1;stroke:none;stroke-width:4;stroke-linejoin:round;stroke-miterlimit:4;stroke-dasharray:none;stroke-opacity:1" />
</svg>

<svg xmlns="http://www.w3.org/2000/svg" viewBox="0 0 16 16">/&gt;<path d="M12 9a3 3 0 00-3 3 3 3 0 003 3 3 3 0 001-.176V15h2V9h-2v.176A3 3 0 0012 9zm0 2a1 1 0 011 1 1 1 0 01-1 1 1 1 0 01-1-1 1 1 0 011-1z" opacity=".6" fill-rule="evenodd" stroke="#000" stroke-width="2" stroke-linejoin="round"/><path d="M12 9a3 3 0 00-3 3 3 3 0 003 3 3 3 0 001-.176V15h2V9h-2v.176A3 3 0 0012 9zm0 2a1 1 0 011 1 1 1 0 01-1 1 1 1 0 01-1-1 1 1 0 011-1z" fill="#fff" fill-rule="evenodd"/><path d="M4.537 5l-.236.666L1 15h2.217l.975-2.285h3.374L8.44 15h2.205L7.406 5H5.695zm1.404 2.24l-1.183 3.332h2.256z" style="line-height:normal;font-variant-ligatures:normal;font-variant-position:normal;font-variant-caps:normal;font-variant-numeric:normal;font-variant-alternates:normal;font-feature-settings:normal;text-indent:0;text-align:start;text-decoration-line:none;text-decoration-style:solid;text-decoration-color:#000;text-transform:none;text-orientation:mixed;white-space:normal;shape-padding:0;isolation:auto;mix-blend-mode:normal;solid-color:#000;solid-opacity:1" color="#000" font-weight="400" font-family="sans-serif" overflow="visible" opacity=".6" fill-rule="evenodd" stroke="#000" stroke-width="2" stroke-linejoin="round"/><path style="line-height:normal;font-variant-ligatures:normal;font-variant-position:normal;font-variant-caps:normal;font-variant-numeric:normal;font-variant-alternates:normal;font-feature-settings:normal;text-indent:0;text-align:start;text-decoration-line:none;text-decoration-style:solid;text-decoration-color:#000;text-transform:none;text-orientation:mixed;white-space:normal;shape-padding:0;isolation:auto;mix-blend-mode:normal;solid-color:#000;solid-opacity:1" d="M4.537 5l-.236.666L1 15h2.217l.975-2.285h3.374L8.44 15h2.205L7.406 5H5.695zm1.404 2.24l-1.183 3.332h2.256z" color="#000" font-weight="400" font-family="sans-serif" overflow="visible" fill="#fff" fill-rule="evenodd"/><path fill="#1463a5" d="M1 1h14v2H1z"/></svg>
